X: 42514
T: Wheels Of The Train, The
R: jig
M: 6/8
K: Edorian
|:E3 EDE|FDD DEF|E3 efe|dBA Bcd|efe d2 B|
AGF G2 A|B2B BAF|1 AFD FED:|2 AFD E3||
|:e2 e edB|ede f2e|ded BAF|ABc d2d|
efe edB|ede f2e|ded BAF|1 AFD E3:|2 AFD FED||

